exported-svg/anchor.svg

<svg height="24" viewBox="0 0 24 24" width="24" xmlns="http://www.w3.org/2000/svg"><path d="m12.5 8.46455557v13.02251233c4.8487018-.2514205 8.7356474-4.1383661 8.9870679-8.9870679h-2.4870679c-.2761424 0-.5-.2238576-.5-.5s.2238576-.5.5-.5h3c.2761424 0 .5.2238576.5.5 0 5.7989899-4.7010101 10.5-10.5 10.5-5.79898987 0-10.5-4.7010101-10.5-10.5 0-.2761424.22385763-.5.5-.5h3c.27614237 0 .5.2238576.5.5s-.22385763.5-.5.5h-2.48706794c.25142058 4.8487018 4.13836616 8.7356474 8.98706794 8.9870679v-13.02251233c-1.69614707-.24261483-3-1.70131962-3-3.46455557 0-1.93299662 1.5670034-3.5 3.5-3.5s3.5 1.56700338 3.5 3.5c0 1.76323595-1.3038529 3.22194074-3 3.46455557zm-.5-.96455557c1.3807119 0 2.5-1.11928813 2.5-2.5s-1.1192881-2.5-2.5-2.5-2.5 1.11928813-2.5 2.5 1.1192881 2.5 2.5 2.5z"/></svg>

<?xml version="1.0" encoding="UTF-8"?>
<svg width="24px" height="24px" viewBox="0 0 24 24" version="1.1" xmlns="http://www.w3.org/2000/svg" xmlns:xlink="http://www.w3.org/1999/xlink">
    <!-- Generator: Sketch 55.2 (78181) - https://sketchapp.com -->
    <title>anchor</title>
    <desc>Created with Sketch.</desc>
    <g id="anchor" stroke="none" stroke-width="1" fill="none" fill-rule="evenodd">
        <path d="M12.5,8.46455557 L12.5,21.4870679 C17.3487018,21.2356474 21.2356474,17.3487018 21.4870679,12.5 L19,12.5 C18.7238576,12.5 18.5,12.2761424 18.5,12 C18.5,11.7238576 18.7238576,11.5 19,11.5 L22,11.5 C22.2761424,11.5 22.5,11.7238576 22.5,12 C22.5,17.7989899 17.7989899,22.5 12,22.5 C6.20101013,22.5 1.5,17.7989899 1.5,12 C1.5,11.7238576 1.72385763,11.5 2,11.5 L5,11.5 C5.27614237,11.5 5.5,11.7238576 5.5,12 C5.5,12.2761424 5.27614237,12.5 5,12.5 L2.51293206,12.5 C2.76435264,17.3487018 6.65129822,21.2356474 11.5,21.4870679 L11.5,8.46455557 C9.80385293,8.22194074 8.5,6.76323595 8.5,5 C8.5,3.06700338 10.0670034,1.5 12,1.5 C13.9329966,1.5 15.5,3.06700338 15.5,5 C15.5,6.76323595 14.1961471,8.22194074 12.5,8.46455557 Z M12,7.5 C13.3807119,7.5 14.5,6.38071187 14.5,5 C14.5,3.61928813 13.3807119,2.5 12,2.5 C10.6192881,2.5 9.5,3.61928813 9.5,5 C9.5,6.38071187 10.6192881,7.5 12,7.5 Z" id="Combined-Shape" fill="#000000" fill-rule="nonzero"></path>
    </g>
</svg>
